X:1977
T:First of October, The
O:england
R:Jig
C:Chip Thompson
M:6/8
L:1/8
Q:122
K:D
A,B,D EDD|EFA BAA|Bdd edd|d/G/Gd F2D|
FD{E}D ED{F}D|B,A,G, {B,}A,A,A,|A,B,D EDB,|{E}DDD D3:||
abb {b}afe|e/f/af edB|Bdd BAA|1 ^GAB {B}A2a|b{d'}b{a}b {b}afe|
e/f/af {f}edB|Bdd {c}BAF|EFE {E}DDD:|2 ^GAB {B}A2A|A,B,D EDD|EFA BAA|
Bdd BAF|EFE D2||
